apps/64/speakers.svg

<?xml version="1.0" encoding="UTF-8" standalone="no"?>
<!-- Created with Inkscape (http://www.inkscape.org/) -->

<svg
   xmlns:dc="http://purl.org/dc/elements/1.1/"
   xmlns:cc="http://creativecommons.org/ns#"
   xmlns:rdf="http://www.w3.org/1999/02/22-rdf-syntax-ns#"
   xmlns:svg="http://www.w3.org/2000/svg"
   xmlns="http://www.w3.org/2000/svg"
   xmlns:sodipodi="http://sodipodi.sourceforge.net/DTD/sodipodi-0.dtd"
   xmlns:inkscape="http://www.inkscape.org/namespaces/inkscape"
   width="64"
   height="64"
   id="svg13094"
   version="1.1"
   inkscape:version="0.91+devel r"
   sodipodi:docname="speakers.svg">
  <sodipodi:namedview
     id="base"
     pagecolor="#ffffff"
     bordercolor="#666666"
     borderopacity="1.0"
     inkscape:pageopacity="0"
     inkscape:pageshadow="2"
     inkscape:zoom="11.313709"
     inkscape:cx="37.99259"
     inkscape:cy="31.40558"
     inkscape:document-units="px"
     inkscape:current-layer="svg13094"
     showgrid="false"
     inkscape:snap-bbox="true"
     inkscape:bbox-paths="true"
     inkscape:bbox-nodes="true"
     inkscape:snap-bbox-edge-midpoints="true"
     inkscape:snap-bbox-midpoints="true"
     inkscape:object-paths="true"
     inkscape:snap-intersection-paths="true"
     inkscape:object-nodes="true"
     inkscape:snap-smooth-nodes="true"
     inkscape:snap-midpoints="true"
     inkscape:snap-object-midpoints="true"
     inkscape:snap-center="true"
     showguides="true"
     inkscape:guide-bbox="true"
     inkscape:window-width="1920"
     inkscape:window-height="1023"
     inkscape:window-x="-10"
     inkscape:window-y="35"
     inkscape:window-maximized="1"
     inkscape:snap-global="true"
     fit-margin-top="0"
     fit-margin-left="0"
     fit-margin-right="0"
     fit-margin-bottom="0"
     showborder="true"
     inkscape:showpageshadow="false"
     inkscape:snap-page="true">
    <inkscape:grid
       type="xygrid"
       id="grid3075"
       empspacing="5"
       visible="true"
       enabled="true"
       snapvisiblegridlinesonly="true"
       originx="1.6362304e-08px"
       originy="18px" />
  </sodipodi:namedview>
  <defs
     id="defs13096" />
  <metadata
     id="metadata13099">
    <rdf:RDF>
      <cc:Work
         rdf:about="">
        <dc:format>image/svg+xml</dc:format>
        <dc:type
           rdf:resource="http://purl.org/dc/dcmitype/StillImage" />
        <dc:title></dc:title>
      </cc:Work>
    </rdf:RDF>
  </metadata>
  <path
     style="color:#000000;fill:#e6ad2b;fill-opacity:1;fill-rule:nonzero;stroke:none;stroke-width:2.28571415;marker:none;visibility:visible;display:inline;overflow:visible;enable-background:accumulate"
     d="M 0 4 L 0 34 L 0 62 L 2 64 L 32 64 L 62 64 L 64 62 L 64 34 L 64 4 L 32 4 L 0 4 z "
     id="path6498" />
  <path
     style="color:#000000;fill:#ffe04c;fill-opacity:1;fill-rule:nonzero;stroke:none;marker:none;visibility:visible;display:inline;overflow:visible;enable-background:accumulate;stroke-width:2.28571415000000000"
     d="M 2 0 L 0 1 L 0 4 L 32 4 L 64 4 L 64 1 L 62 0 L 32 0 L 2 0 z "
     id="path6502" />
  <path
     style="fill:#ffffff;fill-opacity:0.41756275;fill-rule:nonzero"
     d="M 0,3 0,6 2,4 Z"
     id="path4298"
     inkscape:connector-curvature="0"
     sodipodi:nodetypes="cccc" />
  <path
     d="M 64,6 62,4 64,3 z"
     id="path3028"
     style="fill:#1f0700;fill-opacity:0.13759861"
     inkscape:connector-curvature="0" />
  <g
     id="g3043"
     inkscape:export-filename="folder.png"
     inkscape:export-xdpi="90"
     inkscape:export-ydpi="90"
     transform="translate(-0.62500009,0.082283)" />
  <g
     id="scalable"
     transform="matrix(1.0385892,0,0,1.0385892,1214.7222,1878.8121)"
     inkscape:label="#g3701"
     style="fill:#ffffff" />
  <g
     id="g3421" />
  <g
     id="g4306">
    <path
       sodipodi:nodetypes="scsscsccsscscsscscssccs"
       style="color:#000000;fill:#480000;fill-opacity:0.09570662;fill-rule:nonzero;stroke:none;stroke-width:1;marker:none;visibility:visible;display:inline;overflow:visible;enable-background:accumulate"
       d="m 36,15 c -3.332425,0 -6.484881,0.725079 -9.34375,2 L 18,17 c -1.662,0 -3,1.338 -3,3 l 0,8.65625 C 13.725079,31.515119 13,34.667575 13,38 c 0,3.332425 0.725079,6.484881 2,9.34375 L 13,55 15.612984,57.821668 C 16.225908,58.483542 17.024258,59 18,59 l 8.65625,0 c 2.858869,1.274921 6.011325,2 9.34375,2 3.332425,0 6.484881,-0.725079 9.34375,-2 L 54,59 c 1.662,0 3,-1.338 3,-3 l 0,-8.65625 C 58.274921,44.484881 59,41.332425 59,38 59,34.667575 58.274921,31.515119 57,28.65625 L 57,20 c 0,-0.902662 -0.428965,-1.672911 -1.021588,-2.258818 L 52.96875,14.765625 45.34375,17 C 42.484881,15.725079 39.332425,15 36,15 z"
       id="path4216"
       inkscape:connector-curvature="0" />
    <path
       inkscape:connector-curvature="0"
       style="color:#000000;fill:#3e5979;fill-opacity:1;fill-rule:nonzero;stroke:none;stroke-width:1;marker:none;visibility:visible;display:inline;overflow:visible;enable-background:accumulate"
       d="m 32,11 c -3.332425,0 -6.484881,0.725079 -9.34375,2 L 14,13 c -1.662,0 -3,1.338 -3,3 l 0,8.65625 C 9.7250793,27.515119 9,30.667575 9,34 c 0,3.332425 0.7250793,6.484881 2,9.34375 L 11,52 c 0,1.662 1.338,3 3,3 l 8.65625,0 c 2.858869,1.274921 6.011325,2 9.34375,2 3.332425,0 6.484881,-0.725079 9.34375,-2 L 50,55 c 1.662,0 3,-1.338 3,-3 l 0,-8.65625 C 54.274921,40.484881 55,37.332425 55,34 55,30.667575 54.274921,27.515119 53,24.65625 L 53,16 c 0,-1.662 -1.338,-3 -3,-3 l -8.65625,0 C 38.484881,11.725079 35.332425,11 32,11 z"
       id="path4208" />
    <path
       id="path4192"
       d="m 48.25,17.75 -32.5,32.5 C 19.912181,54.412181 25.648726,57 32,57 c 3.332425,0 6.484881,-0.725079 9.34375,-2 L 50,55 c 1.662,0 3,-1.338 3,-3 l 0,-8.65625 C 54.274921,40.484881 55,37.332425 55,34 55,27.648726 52.412181,21.912181 48.25,17.75 z"
       style="color:#000000;fill:#000000;fill-opacity:0.12190815;fill-rule:nonzero;stroke:none;stroke-width:1;marker:none;visibility:visible;display:inline;overflow:visible;enable-background:accumulate"
       inkscape:connector-curvature="0" />
    <path
       transform="matrix(1.2352941,0,0,1.2352941,-7.529413,-8.000001)"
       d="m 49,34 a 17,17 0 1 1 -34,0 17,17 0 1 1 34,0 z"
       sodipodi:ry="17"
       sodipodi:rx="17"
       sodipodi:cy="34"
       sodipodi:cx="32"
       id="path4199"
       style="color:#000000;fill:#000000;fill-opacity:0.2159498;fill-rule:nonzero;stroke:none;stroke-width:0.80952382;marker:none;visibility:visible;display:inline;overflow:visible;enable-background:accumulate"
       sodipodi:type="arc" />
    <path
       transform="translate(1.4e-6,2e-6)"
       d="m 49,34 a 17,17 0 1 1 -34,0 17,17 0 1 1 34,0 z"
       sodipodi:ry="17"
       sodipodi:rx="17"
       sodipodi:cy="34"
       sodipodi:cx="32"
       id="path4248"
       style="color:#000000;fill:#d69127;fill-opacity:1;fill-rule:nonzero;stroke:none;stroke-width:1;marker:none;visibility:visible;display:inline;overflow:visible;enable-background:accumulate"
       sodipodi:type="arc" />
    <path
       id="path4288"
       d="M 44.013672 21.986328 L 19.986328 46.013672 A 17 17 0 0 0 32 51 A 17 17 0 0 0 49 34 A 17 17 0 0 0 44.013672 21.986328 z "
       style="color:#000000;display:inline;overflow:visible;visibility:visible;opacity:1;fill:#eeb32e;fill-opacity:1;fill-rule:nonzero;stroke:none;stroke-width:1;stroke-linecap:butt;stroke-linejoin:miter;stroke-miterlimit:4;stroke-dasharray:none;stroke-dashoffset:0;stroke-opacity:1;marker:none;enable-background:accumulate" />
    <path
       sodipodi:type="arc"
       style="color:#000000;fill:#3e5979;fill-opacity:1;fill-rule:nonzero;stroke:none;stroke-width:1;marker:none;visibility:visible;display:inline;overflow:visible;enable-background:accumulate"
       id="path4159"
       sodipodi:cx="32"
       sodipodi:cy="34"
       sodipodi:rx="17"
       sodipodi:ry="17"
       d="m 49,34 a 17,17 0 1 1 -34,0 17,17 0 1 1 34,0 z"
       transform="matrix(0.52941166,0,0,0.52941166,15.058829,16.000006)" />
    <path
       transform="matrix(0.05882353,0,0,0.05882353,13.117647,15)"
       d="m 49,34 a 17,17 0 1 1 -34,0 17,17 0 1 1 34,0 z"
       sodipodi:ry="17"
       sodipodi:rx="17"
       sodipodi:cy="34"
       sodipodi:cx="32"
       id="path4165"
       style="color:#000000;fill:#b6c9d1;fill-opacity:1;fill-rule:nonzero;stroke:none;stroke-width:1;marker:none;visibility:visible;display:inline;overflow:visible;enable-background:accumulate"
       sodipodi:type="arc" />
    <path
       sodipodi:type="arc"
       style="color:#000000;fill:#b6c9d1;fill-opacity:1;fill-rule:nonzero;stroke:none;stroke-width:1;marker:none;visibility:visible;display:inline;overflow:visible;enable-background:accumulate"
       id="path4163"
       sodipodi:cx="32"
       sodipodi:cy="34"
       sodipodi:rx="17"
       sodipodi:ry="17"
       d="m 49,34 a 17,17 0 1 1 -34,0 17,17 0 1 1 34,0 z"
       transform="matrix(0,0.05882353,-0.05882353,0,51,15.117647)" />
    <path
       sodipodi:type="arc"
       style="color:#000000;fill:#b6c9d1;fill-opacity:1;fill-rule:nonzero;stroke:none;stroke-width:1;marker:none;visibility:visible;display:inline;overflow:visible;enable-background:accumulate"
       id="path4167"
       sodipodi:cx="32"
       sodipodi:cy="34"
       sodipodi:rx="17"
       sodipodi:ry="17"
       d="m 49,34 a 17,17 0 1 1 -34,0 17,17 0 1 1 34,0 z"
       transform="matrix(0.05882353,0,0,0.05882353,47.117647,49)" />
    <path
       transform="matrix(0,0.05882353,-0.05882353,0,17,49.117647)"
       d="m 49,34 a 17,17 0 1 1 -34,0 17,17 0 1 1 34,0 z"
       sodipodi:ry="17"
       sodipodi:rx="17"
       sodipodi:cy="34"
       sodipodi:cx="32"
       id="path3377"
       style="color:#000000;fill:#b6c9d1;fill-opacity:1;fill-rule:nonzero;stroke:none;stroke-width:1;marker:none;visibility:visible;display:inline;overflow:visible;enable-background:accumulate"
       sodipodi:type="arc" />
    <rect
       inkscape:transform-center-x="-1.2374383"
       transform="matrix(0.70710678,-0.70710678,0.70710678,0.70710678,0,0)"
       inkscape:transform-center-y="1.2374378"
       ry="7"
       rx="7"
       y="39.669048"
       x="-8.4142132"
       height="17.500002"
       width="14"
       id="rect4286"
       style="color:#000000;fill:#480000;fill-opacity:0.0957066;fill-rule:nonzero;stroke:none;stroke-width:1;marker:none;visibility:visible;display:inline;overflow:visible;enable-background:accumulate;opacity:1;stroke-linecap:butt;stroke-linejoin:miter;stroke-miterlimit:4;stroke-dasharray:none;stroke-dashoffset:0;stroke-opacity:1" />
    <path
       sodipodi:type="arc"
       style="color:#000000;fill:#446285;fill-opacity:1;fill-rule:nonzero;stroke:none;stroke-width:1;marker:none;visibility:visible;display:inline;overflow:visible;enable-background:accumulate"
       id="path4161"
       sodipodi:cx="32"
       sodipodi:cy="34"
       sodipodi:rx="17"
       sodipodi:ry="17"
       d="m 49,34 a 17,17 0 1 1 -34,0 17,17 0 1 1 34,0 z"
       transform="matrix(0.41176458,0,0,0.41176458,18.823535,20.000007)" />
  </g>
</svg>

<?xml version="1.0" encoding="UTF-8"?>
<!-- Created with Inkscape (http://www.inkscape.org/) -->
<svg width="64" height="64" version="1.1" xmlns="http://www.w3.org/2000/svg" xmlns:cc="http://creativecommons.org/ns#" xmlns:dc="http://purl.org/dc/elements/1.1/" xmlns:rdf="http://www.w3.org/1999/02/22-rdf-syntax-ns#">
	<defs>
		<radialGradient id="d" cx="35.327" cy="36.063" r="32" gradientTransform="matrix(1.0524 0 0 1.0195 -1.933 -.90663)" gradientUnits="userSpaceOnUse">
			<stop stop-color="#d05f09" offset="0"/>
			<stop stop-color="#f4c544" offset="1"/>
		</radialGradient>
		<radialGradient id="c" cx="26.73" cy="29.392" r="17" gradientTransform="matrix(1.0455 0 0 1.0455 -1.2169 -1.3381)" gradientUnits="userSpaceOnUse">
			<stop stop-color="#8a4519" offset="0"/>
			<stop stop-color="#8a4c26" stop-opacity="0" offset="1"/>
		</radialGradient>
		<radialGradient id="b" cx="41.481" cy="43.481" r="17" gradientUnits="userSpaceOnUse">
			<stop stop-color="#f6ff3e" stop-opacity=".46271" offset="0"/>
			<stop stop-color="#f6ff3e" stop-opacity="0" offset="1"/>
		</radialGradient>
		<radialGradient id="a" cx="27.922" cy="31.853" r="17" gradientUnits="userSpaceOnUse">
			<stop stop-color="#446285" offset="0"/>
			<stop stop-color="#446285" stop-opacity="0" offset="1"/>
		</radialGradient>
	</defs>
	<metadata>
		<rdf:RDF>
			<cc:Work rdf:about="">
				<dc:format>image/svg+xml</dc:format>
				<dc:type rdf:resource="http://purl.org/dc/dcmitype/StillImage"/>
				<dc:title/>
			</cc:Work>
		</rdf:RDF>
	</metadata>
	<path d="m0 2v60l2 2h60l2-2v-60h-32z" color="#000000" fill="url(#d)"/>
	<path d="m2 0-2 1v1h64v-1l-2-1h-30z" color="#000000" fill="#f6ff3e"/>
	<path d="m0 1v3l2-2z" fill="#f4f5d0"/>
	<path d="m64 4-2-2 2-1z" fill="#e1d679"/>
	<g transform="translate(0,-1)">
		<path d="m32 11c-3.3324 0-6.4849 0.72508-9.3438 2h-8.6562c-1.662 0-3 1.338-3 3v8.6562c-1.2749 2.8589-2 6.0113-2 9.3438s0.72508 6.4849 2 9.3438v8.6562c0 1.662 1.338 3 3 3h8.6562c2.8589 1.2749 6.0113 2 9.3438 2s6.4849-0.72508 9.3438-2h8.6562c1.662 0 3-1.338 3-3v-8.6562c1.2749-2.8589 2-6.0113 2-9.3438s-0.72508-6.4849-2-9.3438v-8.6562c0-1.662-1.338-3-3-3h-8.6562c-2.8589-1.2749-6.0113-2-9.3438-2z" color="#000000" fill="#3e5979"/>
		<path d="m48.25 17.75-32.5 32.5c4.1622 4.1622 9.8987 6.75 16.25 6.75 3.3324 0 6.4849-0.72508 9.3438-2h8.6562c1.662 0 3-1.338 3-3v-8.6562c1.2749-2.8589 2-6.0113 2-9.3438 0-6.3513-2.5878-12.088-6.75-16.25z" color="#000000" fill="#000000" fill-opacity=".12191"/>
		<circle transform="matrix(1.2353 0 0 1.2353 -7.5294 -8)" cx="32" cy="34" r="17" color="#000000" fill="#000000" fill-opacity=".21595"/>
		<circle cx="32" cy="34" r="17" color="#000000" fill="#d69127"/>
		<circle cx="32" cy="34" r="17" color="#000000" fill="url(#c)"/>
		<circle transform="translate(1.4e-6,2e-6)" cx="32" cy="34" r="17" color="#000000" fill="url(#b)"/>
		<circle transform="matrix(.52941 0 0 .52941 15.059 16)" cx="32" cy="34" r="17" color="#000000" fill="#2c3f55"/>
		<circle transform="matrix(.058824 0 0 .058824 13.118 15)" cx="32" cy="34" r="17" color="#000000" fill="#b6c9d1"/>
		<circle transform="matrix(0 .058824 -.058824 0 51 15.118)" cx="32" cy="34" r="17" color="#000000" fill="#b6c9d1"/>
		<circle transform="matrix(.058824 0 0 .058824 47.118 49)" cx="32" cy="34" r="17" color="#000000" fill="#b6c9d1"/>
		<circle transform="matrix(0 .058824 -.058824 0 17 49.118)" cx="32" cy="34" r="17" color="#000000" fill="#b6c9d1"/>
		<rect transform="rotate(-45)" x="-8.4142" y="39.669" width="14" height="17.5" rx="7" ry="7" color="#000000" fill="#480000" fill-opacity=".095707"/>
		<circle transform="matrix(.41176 0 0 .41176 18.824 20)" cx="32" cy="34" r="17" color="#000000" fill="url(#a)"/>
	</g>
</svg>
